X: 28741
T: My God What A Crowd I Got!
R: polka
M: 2/4
K: Cmajor
|:G2 AB|c2 E>G|GE DC/D/|EC EG|
G2 AB|c2 E>G|GE DC/D/|EC C2:|
|:G2 EG|FA/F/ D>F|EC CE|DG, G,2|
G2 EG|FA/F/ E>F|GE DC/D/|EC C2:|

